src/assets/icons/icons-origin/EyeOff.svg

<svg width="24" height="24" viewBox="0 0 24 24" xmlns="http://www.w3.org/2000/svg">
  <path d="M12 13.5C12.8284 13.5 13.5 12.8284 13.5 12C13.5 11.1716 12.8284 10.5 12 10.5C11.1716 10.5 10.5 11.1716 10.5 12C10.5 12.8284 11.1716 13.5 12 13.5Z" fill="currentColor" />
  <path d="M15.29 18.12L14 16.78L13.93 16.71L12.66 15.44C12.4585 15.4753 12.2546 15.4954 12.05 15.5C11.5862 15.5066 11.1257 15.421 10.6953 15.2481C10.2648 15.0751 9.87307 14.8184 9.54275 14.4927C9.21243 14.167 8.95014 13.779 8.77113 13.351C8.59212 12.9231 8.49996 12.4639 8.50001 12C8.50465 11.7954 8.5247 11.5915 8.56001 11.39L6.56001 9.39L5.00001 7.87C3.87133 8.93347 2.90442 10.1564 2.13001 11.5C2.04224 11.652 1.99603 11.8245 1.99603 12C1.99603 12.1755 2.04224 12.348 2.13001 12.5C2.76001 13.59 6.13001 19 12.02 19H12.27C13.3776 18.9671 14.4708 18.7404 15.5 18.33L15.29 18.12Z" fill="currentColor" />
  <path d="M8.59 5.75999L11.39 8.55999C11.5915 8.52469 11.7954 8.50463 12 8.49999C12.9283 8.49999 13.8185 8.86874 14.4749 9.52512C15.1313 10.1815 15.5 11.0717 15.5 12C15.4954 12.2045 15.4753 12.4085 15.44 12.61L18.12 15.29L18.96 16.13C20.1028 15.0693 21.0834 13.8462 21.87 12.5C21.9578 12.348 22.004 12.1755 22.004 12C22.004 11.8245 21.9578 11.652 21.87 11.5C21.23 10.39 17.71 4.81999 11.73 4.99999C10.6225 5.03285 9.52924 5.25961 8.5 5.66999L8.59 5.75999Z" fill="currentColor" />
  <path d="M20.71 19.29L19.41 18L17.41 16L7.89 6.47L6.42 5L4.71 3.29C4.61676 3.19676 4.50607 3.1228 4.38425 3.07234C4.26243 3.02188 4.13186 2.99591 4 2.99591C3.86814 2.99591 3.73758 3.02188 3.61575 3.07234C3.49393 3.1228 3.38324 3.19676 3.29 3.29C3.1017 3.47831 2.99591 3.7337 2.99591 4C2.99591 4.2663 3.1017 4.5217 3.29 4.71L5.53 7L7.28 8.7L14.59 16L14.66 16.07L16 17.41L16.59 18L19.29 20.71C19.383 20.8037 19.4936 20.8781 19.6154 20.9289C19.7373 20.9797 19.868 21.0058 20 21.0058C20.132 21.0058 20.2627 20.9797 20.3846 20.9289C20.5064 20.8781 20.617 20.8037 20.71 20.71C20.8037 20.617 20.8781 20.5064 20.9289 20.3846C20.9797 20.2627 21.0058 20.132 21.0058 20C21.0058 19.868 20.9797 19.7373 20.9289 19.6154C20.8781 19.4936 20.8037 19.383 20.71 19.29Z" fill="currentColor" />
</svg>

<svg width="24" height="24" viewBox="0 0 24 24" xmlns="http://www.w3.org/2000/svg">
  <path d="M12 13.5a1.5 1.5 0 1 0 0-3 1.5 1.5 0 0 0 0 3ZM15.29 18.12 14 16.78l-.07-.07-1.27-1.27A3.5 3.5 0 0 1 8.5 12c.005-.205.025-.409.06-.61l-2-2L5 7.87a15.89 15.89 0 0 0-2.87 3.63 1 1 0 0 0 0 1c.63 1.09 4 6.5 9.89 6.5h.25a9.48 9.48 0 0 0 3.23-.67l-.21-.21ZM8.59 5.76l2.8 2.8A4.07 4.07 0 0 1 12 8.5a3.5 3.5 0 0 1 3.5 3.5 4.066 4.066 0 0 1-.06.61l2.68 2.68.84.84a15.89 15.89 0 0 0 2.91-3.63 1 1 0 0 0 0-1c-.64-1.11-4.16-6.68-10.14-6.5a9.48 9.48 0 0 0-3.23.67l.09.09Z" fill="currentColor"/>
  <path d="M20.71 19.29 19.41 18l-2-2-9.52-9.53L6.42 5 4.71 3.29a1.004 1.004 0 1 0-1.42 1.42L5.53 7l1.75 1.7 7.31 7.3.07.07L16 17.41l.59.59 2.7 2.71a1.002 1.002 0 0 0 1.639-.325 1 1 0 0 0-.219-1.095Z" fill="currentColor"/>
</svg>
